!!!!SEGMENT: pl-sa--552-a-ix-32--041_anonim--valtz.krn
!!!id: 18xx:552
!!!COM: Anonim
!!!COM-rism: pe30004985
!!!CDT:
!!!CNT:
!!!OTL: Valtz
!!!PDT:
!!!SMS-siglum: PL-SA
!!!SMS-shelfmark: 552/A IX 32
!!!NIFC-rismID: 1001069586
!!!URL-scan: http://bc.bdsandomierz.pl/dlibra/publication/1308/edition/1276/content
!!!ONB-nifc: Str. 22, s. 3-5
!!!SMS-variant:
!!!SMS-altvar:
**kern	**kern
*part2	*part1
*staff2	*staff1
*clefF4	*clefG2
*k[f#c#]	*k[f#c#]
*D:	*D:
*M3/8	*M3/8
*>[A,A,B,B,C,C,D,D]	*>[A,A,B,B,C,C,D,D]
*>A	*>A
!LO:TX:a:t=P:problem:omyłkowo wpisany klucz F3 zamiast F4:global	!LO:TX:a:i:t=Valtʒ
!LO:TX:a:t=P:problem:jedno metrum	!
8ryy	8d\
=1	=1
4.ryy	8d\
!	!LO:TUP:a:problem:klamra łukowa
.	24d\LL
.	24d\
.	24d\J
.	8d\J
=2	=2
*	*rep
4.ryy	8d\
!	!LO:TUP:a:problem:klamra łukowa
.	24d\LL
.	24d\
.	24d\J
.	8d\J
*	*Xrep
=3	=3
4.ryy	8d/L
.	8a/
.	8f#/J
=4	=4
8d>\L	8d/
8A\	8r
!	!LO:TUP:a:problem:klamra łukowa
8F#\J	24a\LL
.	24dd\
.	24ff#\JJ
=5	=5
8D\L	8aa\L
8d 8A 8F#\	8r
8dJ 8A 8F#\	8dd\J
=6	=6
*^	*
8r	4E\	8cc#\
8BL 8G/	.	8r
!	!	!LO:TUP:a:problem:klamra łukowa
8AJ 8G/	8ryy	24cc#\LL
.	.	24ee\
.	.	24gg\JJ
*v	*v	*
=7	=7
8AA\L	8bb\L
8A 8E 8C#\	8r
8AJ 8E 8C#\	8cc#\J
=8	=8
8D\L	8dd\
8A 8F#\	8r
!	!LO:TUP:a:problem:klamra łukowa
8AJ 8F#\	24dd\LL
.	24ff#\
.	24aa\JJ
=9	=9
8BL 8G 8D\	4ddd\
8BJ 8G 8D\	.
!	!LO:TUP:a:problem:klamra łukowa
8r	24b\LL
.	24dd\
.	24gg\JJ
=10	=10
8eL 8c# 8A\	4bb\
8eJ 8c# 8A\	.
!	!LO:TUP:a:problem:klamra łukowa
8r	24a\LL
.	24cc#\
.	24ee\JJ
=11	=11
*clefG2	*
!LO:N:vis=8.	!LO:TX:a:t=|:problem
4.g 4.e 4.A/	8gg\L
!	!LO:TX:a:t=|:problem
.	8cc#\
!	!LO:TX:a:t=|:problem
.	8aa\J
=12	=12
!	!LO:TX:a:t=|:problem
4f# 4d/	4dd\
=:|!|:	=:|!|:
*>B	*>B
*k[cn]	*k[cn]
*G:	*G:
8r	16ff#y\LL
.	16ff#\JJ
*clefF4	*
=13	=13
8F#y\L	8gg\L
!LO:SIC:v:n=2:s=8c#	!
8e 8c\	8ff#y\
!LO:SIC:v:n=2:s=8c#	!
8eJ 8c\	8a#X\J
!!LO:LB:g=original
=14	=14
8B\L	4b\
8f#yJ 8d 8B\	.
8r	16aa\LL
.	16aa\JJ
*clefG2	*
=15	=15
8A/L	8bb\L
8g 8e/	8aa\
!	!LO:SIC:v:s=8cc#
8gJ 8e/	8cc\J
=16	=16
8f#yL 8d/	4dd\
8f#J 8d/	.
8r	16ddd\LL
.	16ddd\JJ
=17	=17
8g 8d 8B 8G/	8dddL 8bb\
!	!LO:SIC:v:n=1:s=8ccc#
8r	8ccc 8aa\
8g 8d 8B 8G/	8bbJ 8gg\
=18	=18
8f#y 8d 8A/	8aa\L
8r	16bb\L
.	16aa\
8f# 8d 8A/	16gg\
.	16ff#y\JJ
=19	=19
!LO:SIC:v:n=2:s=8c#	!
8gL 8c 8A/	8ee\L
8r	16aa\L
.	16gg\
!LO:SIC:v:n=2:s=8c#	!
8gJ 8c 8A/	16ff#y\
.	16ee\JJ
=20	=20
4f#y 4d/	4dd\
=:|!|:	=:|!|:
*>C	*>C
8r	16ff#y\LL
.	16gg\JJ
!LO:CL:ed	!
*clefF4	*
=21	=21
*tremolo	*
!LO:TX:a:t=|||:problem	!
!LO:TX:a:t=P:problem:złe wyświetlanie wartości rytmicznej tremolo	!
!LO:N:TREM:vis=4	!
8dL 8A 8F# 8D\	16a/LL
.	16b/
8d 8A 8F# 8D\	16a/
.	16g#X/J
8dJ 8A 8F# 8D\	8a/J
=22	=22
*rep	*rep
!LO:TX:a:t=|||:problem	!
!LO:TX:a:t=P:problem:złe wyświetlanie wartości rytmicznej tremolo	!
!LO:N:TREM:vis=4	!
8dL 8A 8F# 8D\	16a/LL
.	16b/
8d 8A 8F# 8D\	16a/
.	16g#X/J
8dJ 8A 8F# 8D\	8a/J
*Xrep	*Xrep
=23	=23
*rep	*
!LO:TX:a:t=|||:problem	!LO:TX:a:t=|:problem
!LO:TX:a:t=P:problem:złe wyświetlanie wartości rytmicznej tremolo	!
!LO:N:TREM:vis=4	!
8dL 8A 8F# 8D\	8a\L
!	!LO:TX:a:t=|:problem
8d 8A 8F# 8D\	8dd\
!	!LO:TX:a:t=|:problem
8dJ 8A 8F# 8D\	8ff#y\J
*Xrep	*
*Xtremolo	*
=24	=24
!LO:SIC:v:n=3:s=8C#	!
!LO:SIC:v:n=1:s=8c#	!
8cL 8A 8C\	8ee^\L
8r	(16ff#y\L
.	16ee\
!LO:SIC:v:n=1:s=8c#	!
8cJ 8A 8E\	16dd\)
!	!LO:SIC:v:s=16cc#
.	16cc\JJ
=25	=25
8dL 8B 8G#X 8E\	8dd^\L
8r	(16ee\L
.	16dd\
!	!LO:SIC:v:s=16cc#
8dJ 8B 8G# 8E\	16cc\
.	16b\JJ)
=26	=26
8dL 8B 8E\	16b\LL
!	!LO:SIC:v:s=16cc#
.	16cc\
8r	16b\
.	16a\J
8dJ 8B 8E\	8g#X\J
=27	=27
!LO:SIC:v:n=1:s=4c#	!
4c 4A\	4a/
!!LO:LB:g=original
=:|!|:	=:|!|:
*>D	*>D
*k[f#c#]	*k[f#c#]
*M3/8	*M3/8
!LO:TX:a:t=P:problem:jedno metrum	!
8r	16ee\LL
.	16ff#\JJ
=28	=28
8AA/	16gg\LL
.	16ee\
8AL 8E 8C#\	16cc#\
.	16a\
8AJ 8E 8C#\	16g#X\
.	16a\JJ
=29	=29
*rep	*
8AA/	8.b/L
8AL 8E 8C#\	.
.	16a/L
8AJ 8E 8C#\	16e/
.	16gn/JJ
*Xrep	*
=30	=30
8D\L	16f#\LL
.	16d\
8A 8F#\	16a\
.	16f#\
8AJ 8F#\	16dd\
.	16f#\JJ
=31	=31
*rep	*
8D\L	16ff#\LL
.	16dd\
8A 8F#\	16aa\
.	16ff#\
8AJ 8F#\	16bb\
.	16aa\JJ
*Xrep	*
=32	=32
8AA/	16gg\LL
.	16ee\
8AL 8E 8C#\	16cc#\
.	16a\
8AJ 8E 8C#\	16g#X\
.	16a\JJ
=33	=33
*rep	*
8AA/	8.b/L
8AL 8E 8C#\	.
.	16a/L
8AJ 8E 8C#\	16e/
.	16gn/JJ
*Xrep	*
=34	=34
*tremolo	*
!LO:TX:a:t=|||:problem	!
!LO:TX:a:t=P:problem:złe wyświetlanie wartości rytmicznej tremolo	!
!LO:N:TREM:vis=4	!
8AL 8F# 8D\	16f#\LL
.	16a\
8A 8F# 8D\	16dd\
.	16ff#\
8AJ 8F# 8D\	16aa\
.	16cc#\JJ
*Xtremolo	*
=35	=35
4A 4F# 4D\	4dd\
8ryy	8ryy
==:|!|:	==:|!|:
*-	*-
!!!system-decoration: {s1,s2}
!!!RDF**kern: > = above
!!!ENC: Marta Lawrence
!!!END: 2020-12-13
!!!ENC: Andrzej Borzym
!!!END: 2020-06-18
